<?xml version="1.0" encoding="UTF-8"?>
<map version="1.10" tiledversion="1.12.1" orientation="orthogonal" renderorder="right-down" width="50" height="15" tilewidth="32" tileheight="32" infinite="0" nextlayerid="3" nextobjectid="42">
 <tileset firstgid="1" source="blocks.tsx"/>
 <layer id="1" name="Tile Layer 1" width="50" height="15" offsetx="0" offsety="1">
  <data encoding="csv">
0,0,0,0,0,0,0,0,0,0,0,0,0,0,0,0,0,0,0,0,0,0,0,0,0,0,0,0,0,0,0,0,0,0,0,0,0,0,0,0,0,0,0,0,0,0,0,0,0,0,
0,0,0,0,0,0,0,0,0,0,0,0,0,0,0,0,0,0,0,0,0,0,0,0,0,0,0,0,0,0,0,0,0,0,0,0,0,0,0,0,0,0,0,0,0,0,0,0,0,0,
0,0,0,0,0,0,0,0,0,0,0,0,0,0,0,0,0,0,0,0,0,0,0,0,0,0,0,0,0,0,0,0,0,0,0,0,0,0,0,0,0,0,0,0,0,0,0,0,0,0,
0,0,0,0,0,0,0,0,0,0,0,0,0,0,0,0,0,0,0,0,0,0,0,0,0,0,0,0,0,0,0,0,0,0,0,0,0,0,0,0,0,0,0,0,0,0,0,0,0,0,
0,0,0,0,0,0,0,0,0,0,0,0,0,0,0,0,0,0,0,0,0,0,0,0,0,0,0,0,0,0,0,0,0,0,0,0,0,0,0,0,0,0,0,0,0,0,0,0,0,0,
0,0,0,0,0,0,0,0,0,0,0,0,0,0,0,0,0,0,0,0,0,0,0,0,0,0,0,0,0,0,0,0,0,0,0,0,0,0,0,0,0,0,0,0,0,0,0,0,0,0,
0,0,0,0,0,0,0,0,0,0,0,0,0,0,0,0,0,0,0,0,0,0,0,0,0,0,0,0,0,0,0,0,0,0,0,0,0,0,0,0,0,0,0,0,0,0,0,0,0,0,
0,0,0,0,0,0,0,0,0,0,0,0,0,0,0,0,0,0,0,0,0,0,0,0,0,0,0,0,0,0,0,0,0,0,0,0,0,0,0,0,0,0,0,0,0,0,0,0,0,0,
0,0,0,0,0,0,0,0,0,0,0,0,0,0,0,0,0,0,0,0,0,0,0,0,0,0,0,0,0,0,0,0,0,0,0,0,0,0,0,0,0,0,0,0,0,0,0,0,0,0,
0,0,0,0,0,0,0,0,0,0,0,0,0,0,0,0,0,0,0,0,0,0,0,0,0,0,0,0,0,0,0,0,0,0,0,0,0,0,0,0,0,0,0,0,0,0,0,0,0,0,
0,0,0,0,0,0,0,0,0,0,0,0,0,0,0,0,0,0,0,0,0,0,0,0,0,0,0,0,0,0,0,0,0,0,0,0,0,0,0,0,0,0,0,0,0,0,0,0,0,0,
0,0,0,0,0,0,0,0,0,0,0,0,0,0,0,0,0,0,0,0,0,0,0,0,0,0,0,0,0,0,0,0,0,0,0,0,0,0,0,0,0,0,0,0,0,0,0,0,0,0,
0,0,0,0,0,0,0,0,0,0,0,0,0,0,0,0,0,0,0,0,0,0,0,0,0,0,0,0,0,0,0,0,0,0,0,0,0,0,0,0,0,0,0,0,0,0,0,0,0,0,
0,0,0,0,0,0,0,0,0,0,0,0,0,0,0,0,0,0,0,0,0,0,0,0,0,0,0,0,0,0,0,0,0,0,0,0,0,0,0,0,0,0,0,0,0,0,0,0,0,0,
0,0,0,0,0,0,0,0,0,0,0,0,0,0,0,0,0,0,0,0,0,0,0,0,0,0,0,0,0,0,0,0,0,0,0,0,0,0,0,0,0,0,0,0,0,0,0,0,0,0
</data>
 </layer>
 <objectgroup id="2" name="Ground">
  <object id="14" gid="1" x="352" y="352" width="32" height="32"/>
  <object id="15" gid="1" x="384" y="352" width="32" height="32"/>
  <object id="16" gid="1" x="416" y="352" width="32" height="32"/>
  <object id="17" gid="1" x="448" y="352" width="32" height="32"/>
  <object id="18" gid="1" x="480" y="352" width="32" height="32"/>
  <object id="19" gid="1" x="480" y="384" width="32" height="32"/>
  <object id="20" gid="1" x="448" y="384" width="32" height="32"/>
  <object id="21" gid="1" x="416" y="384" width="32" height="32"/>
  <object id="22" gid="1" x="320" y="352" width="32" height="32"/>
  <object id="23" gid="1" x="384" y="384" width="32" height="32"/>
  <object id="24" gid="1" x="352" y="384" width="32" height="32"/>
  <object id="25" gid="1" x="320" y="384" width="32" height="32"/>
  <object id="26" gid="2" x="288" y="352" width="32" height="32"/>
  <object id="27" gid="2" x="256" y="368" width="32" height="32"/>
  <object id="28" gid="2" x="224" y="376" width="32" height="32"/>
  <object id="29" gid="2" x="192" y="392" width="32" height="32"/>
  <object id="30" gid="2" x="192" y="424" width="32" height="32"/>
  <object id="31" gid="5" x="512" y="352" width="32" height="32"/>
  <object id="32" gid="5" x="544" y="352" width="32" height="32"/>
  <object id="33" gid="5" x="576" y="352" width="32" height="32"/>
  <object id="35" gid="3" x="320" y="320" width="32" height="32"/>
  <object id="37" gid="2" x="448" y="320" width="32" height="32"/>
  <object id="38" gid="2" x="448" y="288" width="32" height="32"/>
  <object id="39" gid="2" x="544" y="320" width="32" height="32"/>
  <object id="40" gid="2" x="544" y="288" width="32" height="32"/>
  <object id="41" gid="2" x="544" y="256" width="32" height="32"/>
 </objectgroup>
</map>
